X:198
T: Why Should Old Acquaintance Be Forgot
N: O'Farrell's Pocket Companion v.3 (Sky ed. p.102)
N: "Scotch"
M: 2/4
R: march % ?
L: 1/8
Q: 180
K: G
D>E| G<GG>B| A>GAB| G<GBd| e2 g>e|
d<BBG| AGAB| G<EED| G2 :|
ze| dBBG| A>GAB| dBBd| e2 {f}Hg>e|
dBBG| AGAB| G<EED| G2 :|
